Adwaita++-Light/panel/16/state-information.svg

<svg height="16" width="16" xmlns="http://www.w3.org/2000/svg">
  <path d="m8 15c-3.866 0-7-3.134-7-7s3.134-7 7-7 7 3.134 7 7-3.134 7-7 7zm-1-3h2v-5h-2zm0-6h2v-2h-2z" fill="#444"/>
</svg>

<svg xmlns="http://www.w3.org/2000/svg" width="16" height="16" version="1.1">
 <defs>
  <style id="current-color-scheme" type="text/css">
   .ColorScheme-Text { color:#444444; } .ColorScheme-Highlight { color:#4285f4; }
  </style>
 </defs>
 <path style="fill:currentColor" class="ColorScheme-Text" d="M 8,15 C 4.134,15 1,11.866 1,8 1,4.134 4.134,1 8,1 11.866,1 15,4.134 15,8 15,11.866 11.866,15 8,15 Z M 7,12 H 9 V 7 H 7 Z M 7,6 H 9 V 4 H 7 Z"/>
</svg>
